svg/domestic_worker_outline.svg

<?xml version="1.0" encoding="UTF-8" standalone="no"?>
<!-- Created with Inkscape (http://www.inkscape.org/) -->
<svg id="svg8" xmlns:rdf="http://www.w3.org/1999/02/22-rdf-syntax-ns#" xmlns="http://www.w3.org/2000/svg" xmlns:osb="http://www.openswatchbook.org/uri/2009/osb" height="48" width="48" version="1.1" xmlns:cc="http://creativecommons.org/ns#" viewBox="0 0 12.7 12.7" xmlns:dc="http://purl.org/dc/elements/1.1/">
 <title id="title4753">UIO-icon</title>
 <metadata id="metadata5">
  <rdf:RDF>
   <cc:Work rdf:about="">
    <dc:format>image/svg+xml</dc:format>
    <dc:type rdf:resource="http://purl.org/dc/dcmitype/StillImage"/>
    <dc:title>UIO-icon</dc:title>
    <dc:creator>
     <cc:Agent>
      <dc:title>Joaquín Urbano</dc:title>
     </cc:Agent>
    </dc:creator>
    <dc:rights>
     <cc:Agent>
      <dc:title>GPL</dc:title>
     </cc:Agent>
    </dc:rights>
   </cc:Work>
  </rdf:RDF>
 </metadata>
 <g id="layer1" transform="translate(0,-284.3)">
  <path id="path1933" d="m23.654 6.6426c-9.8042 0.0077102-10.529 9.5719-9.4238 18.816 0.56143 3.1984 3.7019 1.0645 5.7324 1.4141 1.456 0.9389 2.4559 1.5505 3.9668 1.5977 1.0258 0.003078 2.2896-0.75555 3.6602-1.623 2.0304-0.18213 4.9773 1.7002 5.5195-1.3887 1.4651-9.589 0.41757-18.796-9.4238-18.816-0.01046 0-0.019986-0.000080126-0.03125 0zm0 0.51367c2.6647-0.010809 4.4168 0.73057 5.2051 1.2695 1.2494 0.81947 2.1349 1.9319 2.7324 2.957 0.44941 0.89136 0.79017 1.8261 1.0312 2.8008 0.27077 1.1387 0.50456 2.4557 0.50781 4.8496-0.028801 1.3118-0.052054 2.623-0.22266 3.9551-0.096472 0.97598-0.19259 1.5475-0.28906 2.2578-0.1169 0.88672-0.40573 1.6427-1.9199 1.4609-0.90819-0.18477-1.7679-0.34524-2.3672-0.36523 0.40568-0.27391 0.91232-0.55037 1.0645-0.87695 0.91881-1.9826 1.1173-3.2076 1.3027-4.416 0.073513-1.0386 0.043893-2.0813-0.25586-3.1406-0.436-1.482-1.241-2.717-1.923-3.541-0.977-1.163-2.096-2.173-3.301-3.086-0.20635-0.13639-0.39697-0.37441-0.68164 0.046875-1.3392 1.3635-2.4835 2.4884-3.7832 3.4629-1.176 0.83742-2.3142 1.2184-3.4277 1.3066-0.44642 0.12983-0.50045 0.26948-0.47852 0.51367-0.016879 1.296 0.10744 3.9925 0.125 4.2188 0.018648 1.1779 0.18519 2.2309 0.47461 3.1797 0.352 0.98079 0.8193 1.8027 1.5039 2.3262-0.88456 0.13329-1.6233 0.32031-2.6602 0.39648-0.81157 0.034167-1.2344-0.30351-1.4277-0.85938-0.068681-0.32749-0.10085-0.15297-0.26953-1.9004l-0.186-2.582-0.029-3.082c0.082259-1.0753 0.1233-2.0987 0.36328-3.3711 0.16142-1.0343 0.51596-1.9405 0.85938-2.8535 0.78034-1.794 1.7096-2.7272 2.6758-3.4473 1.218-0.67 2.137-1.4313 5.376-1.4809zm1.25 4.5312c5.2217 4.0188 6.6866 7.7562 4.0234 13.564-0.17086 0.16658-0.35239 0.32145-0.55664 0.44922-1.528 1.028-3.294 2.248-4.433 2.244-1.664-0.047-2.642-0.745-4.532-1.935-1.335-0.841-1.912-3.164-1.916-5.049-0.056-1.432-0.158-2.864-0.131-4.295l0.001953-0.054688c2.913-0.105 5.211-2.581 7.543-4.923zm-3.982 5.527c-0.43898 0.00011339-0.79483 0.35604-0.79492 0.79492 0.00009109 0.43895 0.35596 0.79481 0.79492 0.79492 0.43898-0.00011339 0.79482-0.35601 0.79492-0.79492-0.00009903-0.43899-0.35596-0.79481-0.79492-0.79492zm5.9688 0c-0.43898 0.00011339-0.79483 0.35604-0.79492 0.79492 0.00009109 0.43895 0.35592 0.79481 0.79492 0.79492 0.43899-0.00011339 0.79482-0.35601 0.79492-0.79492-0.00009865-0.43899-0.35592-0.79481-0.79492-0.79492zm-3.0352 3.6699c-0.37814 0.00378-0.67004 0.070579-0.66602 0.14844 0.002 0.080882 0.3224 0.14686 0.7168 0.14648 0.39441 0.0000378 0.71477-0.065602 0.7168-0.14648 0.003-0.082016-0.31865-0.14844-0.7168-0.14844-0.017008-0.00011317-0.033996-0.00011317-0.050781 0zm0.035156 2.5488c-1.4518 0.003704-2.5734 0.048271-2.5605 0.10156 0.01852 0.055181 1.2473 0.099609 2.7559 0.099609 1.5078 0 2.7352-0.044806 2.7539-0.099609 0.009789-0.055937-1.226-0.10156-2.7539-0.10156-0.06508-0.00007559-0.13027-0.00007559-0.19531 0zm6.8516 5.2754c-1.5652 1.4702-4.7177 2.8115-6.8027 2.8438-2.5629-0.002872-5.0208-1.0188-6.8379-2.8262l-0.10938 0.029297c-0.87529 0.31559-1.7272 0.6743-2.582 1.0449v5.8496h18.737v-5.9824c-0.79453-0.34091-1.5874-0.66902-2.4043-0.95898zm0.10742 0.58594s0.90056 0.35421 1.4629 0.58203c0.24854 0.10069 0.31641 0.12891 0.31641 0.12891l0.001953 5.1309h-17.715l-0.01-4.987c-0.00012447-0.06226 1.7656-0.72656 1.7656-0.72656 0.29924-0.1146 0.28207-0.12207 0.29688-0.10938 0.65299 0.55982 3.3133 2.9164 7.0469 2.7539 2.9093-0.12663 4.8252-1.3 6.834-2.7734zm4.9492 1.5234v12.023h5.918v-6.661c0-1.1525 0.00016284-3.2682-2.5449-4.0195-1.2109-0.42077-2.3081-0.88043-3.373-1.3418zm-24.041 0.131c-0.972 0.417-1.9728 0.83-3.0685 1.211-2.5451 0.75-2.545 2.867-2.545 4.02v6.6621h5.6135v-7.192zm24.551 0.651 2.632 1.025c1.2836 0.41857 2.3331 1.0986 2.2559 3.043l0.003906 6.6602h-4.8906zm-25.064 0.12695-0.001953 6.7285v3.872h-4.5868l0.0078125-6.6309v-0.32031c0.19978-1.0654 0.34344-2.1469 2.2051-2.7461z" transform="matrix(.26458 0 0 .26458 0 284.3)" fill="#333"/>
 </g>
</svg>

<svg width="48" height="48" viewBox="0 0 48 48" fill="none" xmlns="http://www.w3.org/2000/svg">
<path d="M23.6536 6.64258C13.8495 6.65029 13.1247 16.2144 14.2299 25.4583C14.7913 28.6567 17.9318 26.5228 19.9622 26.8724C21.4182 27.8113 22.4181 28.4229 23.929 28.4701C24.9548 28.4732 26.2186 27.7146 27.5891 26.8471C29.6195 26.665 32.5664 28.5473 33.1086 25.4584C34.5737 15.8696 33.5261 6.66268 23.6849 6.64268C23.6744 6.64268 23.6649 6.6426 23.6536 6.64268V6.64258ZM23.6536 7.15624C26.3183 7.14543 28.0703 7.8868 28.8586 8.42573C30.108 9.24519 30.9935 10.3576 31.591 11.3827C32.0404 12.274 32.3812 13.2088 32.6222 14.1835C32.8929 15.3221 33.1267 16.6391 33.13 19.033C33.1012 20.3448 33.0779 21.656 32.9073 22.988C32.8109 23.964 32.7147 24.5355 32.6183 25.2458C32.5014 26.1325 32.2125 26.8885 30.6984 26.7067C29.7902 26.5219 28.9305 26.3615 28.3312 26.3415C28.7369 26.0676 29.2435 25.7911 29.3957 25.4645C30.3145 23.482 30.513 22.257 30.6984 21.0486C30.7719 20.01 30.7423 18.9673 30.4425 17.908C30.0065 16.426 29.2015 15.1911 28.5196 14.3671C27.5426 13.2041 26.4236 12.1941 25.2186 11.2811C25.0123 11.1447 24.8216 10.9067 24.537 11.328C23.1978 12.6915 22.0535 13.8164 20.7538 14.7908C19.5778 15.6283 18.4396 16.0092 17.3262 16.0974C16.8797 16.2273 16.8257 16.3669 16.8476 16.6111C16.8308 17.9071 16.9551 20.6035 16.9726 20.8298C16.9913 22.0077 17.1578 23.0607 17.4472 24.0095C17.7992 24.9903 18.2665 25.8122 18.9511 26.3357C18.0666 26.469 17.3279 26.656 16.291 26.7321C15.4794 26.7663 15.0566 26.4286 14.8633 25.8728C14.7946 25.5453 14.7624 25.7198 14.5938 23.9724L14.4078 21.3904L14.3788 18.3085C14.461 17.2332 14.5021 16.2098 14.742 14.9374C14.9035 13.9031 15.258 12.9969 15.6014 12.0839C16.3817 10.29 17.311 9.35678 18.2772 8.63669C19.4952 7.9667 20.4141 7.20541 23.6531 7.15581L23.6536 7.15624ZM24.9036 11.6874C30.1252 15.7061 31.5901 19.4435 28.9269 25.2512C28.7561 25.4178 28.5745 25.5727 28.3703 25.7004C26.8423 26.7284 25.0763 27.9484 23.9373 27.9444C22.2734 27.8974 21.2954 27.1994 19.4054 26.0094C18.0704 25.1684 17.4934 22.8455 17.4894 20.9605C17.4334 19.5285 17.3314 18.0965 17.3584 16.6655L17.3604 16.6109C20.2733 16.5059 22.5713 14.0299 24.9033 11.6879L24.9036 11.6874ZM20.9216 17.2143C20.4827 17.2144 20.1268 17.5704 20.1267 18.0092C20.1268 18.4482 20.4827 18.804 20.9216 18.8041C21.3606 18.804 21.7164 18.4481 21.7165 18.0092C21.7164 17.5702 21.3606 17.2144 20.9216 17.2143ZM26.8903 17.2143C26.4514 17.2144 26.0955 17.5704 26.0954 18.0092C26.0955 18.4482 26.4514 18.804 26.8903 18.8041C27.3293 18.804 27.6852 18.4481 27.6853 18.0092C27.6852 17.5702 27.3293 17.2144 26.8903 17.2143ZM23.8552 20.8842C23.4771 20.888 23.1852 20.9547 23.1892 21.0326C23.1912 21.1135 23.5116 21.1795 23.906 21.1791C24.3004 21.1791 24.6207 21.1135 24.6228 21.0326C24.6258 20.9506 24.3041 20.8842 23.906 20.8842C23.889 20.8841 23.872 20.8841 23.8552 20.8842ZM23.8903 23.4329C22.4386 23.4366 21.317 23.4812 21.3299 23.5345C21.3484 23.5897 22.5772 23.6341 24.0857 23.6341C25.5935 23.6341 26.8209 23.5893 26.8396 23.5345C26.8494 23.4786 25.6136 23.4329 24.0857 23.4329C24.0207 23.4329 23.9555 23.4329 23.8904 23.4329H23.8903ZM30.7419 28.7083C29.1767 30.1785 26.0242 31.5197 23.9392 31.552C21.3764 31.5492 18.9185 30.5332 17.1014 28.7259L16.9921 28.7552C16.1168 29.0708 15.2649 29.4295 14.4101 29.8001V35.6496H33.1468V29.6673C32.3523 29.3264 31.5595 28.9982 30.7426 28.7083H30.7419ZM30.8493 29.2942C30.8493 29.2942 31.7498 29.6484 32.3122 29.8762C32.5607 29.9769 32.6286 30.0051 32.6286 30.0051L32.6305 35.136H14.9157L14.9057 30.149C14.9056 30.0868 16.6713 29.4225 16.6713 29.4225C16.9706 29.3079 16.9534 29.3004 16.9682 29.3131C17.6212 29.8729 20.2815 32.2295 24.015 32.067C26.9243 31.9403 28.8401 30.767 30.8489 29.2936L30.8493 29.2942ZM35.7984 30.8176V42.8404H41.7163V36.1795C41.7163 35.027 41.7165 32.9114 39.1715 32.1601C37.9606 31.7393 36.8634 31.2796 35.7985 30.8183L35.7984 30.8176ZM11.7577 30.9486C10.7857 31.3656 9.78494 31.7786 8.68926 32.1596C6.14419 32.9096 6.14429 35.0265 6.14429 36.1795V42.8415H11.7577V35.6496V30.9486ZM36.3084 31.5996L38.9404 32.6246C40.224 33.0431 41.2734 33.7231 41.1962 35.6675L41.2002 42.3276H36.3096L36.3084 31.5996ZM11.2447 31.7265L11.2428 38.4549V42.3269H6.65603L6.66384 35.6961V35.3758C6.86362 34.3104 7.00728 33.2289 8.86891 32.6297L11.2447 31.7265Z" fill="#333333"/>
</svg>
